X:1
T: Mirth's Welcome
C:Michael Laidlaw
R:Jig
Q:180
K:C
M:6/8
L:1/16
|:G2|c2G2e2 c4G2|c2G2e2 c6|d2G2d2 e2G2e2|g2G2e2d6|
c2G2e2 c4G2|c2G2e2 c6|d4G2 g4e2|d6c6|
g4g2 e2c2e2|g4g2 e2c2e2|g4e2 G4e2|d2c2^f2 g4g2|
g4g2 e2c2e2|a2e2a2 g2e2g2|a2g2e2 a2g2e2|G2e2d2 c4:|
